!!!OTL: Osterjubel
!!!ARE: Europa, Mitteleuropa, Deutschland
!!!SCT: A0564B
!!!YEM: Copyright 1995, estate of Helmut Schaffrath.
**kern
*ICvox
*Ivox
*M3/2
*k[b-]
*F:
{2f
=1
1f
2a
=2
1cc
2dd
=3
2cc
2a
2b-
=4
1cc}
{2ff
=5
2ee
2dd
2ee
=6
1ff
2cc
=7
1cc
2b-
=8
1a}
{2f
=9
2g
2a
2b-
=10
2a
2g
2f
=11
2e
2d
2e
=12
1f}
==
!!!AGN: Romanze, Ballade, Lied, religioeses Lied
!! Mainzer Cantual 1605.
!!!ONB: ESAC (Essen Associative Code) Database: ALTDEU
!!!AMT: simple triple
!!!AIN: vox
!!!EED: Helmut Schaffrath
!!!EEV: 1.0
*-
